build/category/GlobeSolid.svg

<svg xmlns="http://www.w3.org/2000/svg" fill="none" viewBox="0 0 24 24" focusable="false"><path d="M0 0H24V24H0z"/><path fill="#74767B" fill-rule="evenodd" d="M4.78026 7.32485C4.60745 7.32485 4.48433 7.1862 4.48433 7.03569C4.48433 6.98166 4.5002 6.92611 4.53533 6.87489C5.97129 4.78119 8.26225 3.32185 10.9036 3.00232C11.0914 2.9796 11.2194 3.12735 11.2194 3.28715C11.2194 3.35918 11.1934 3.43366 11.1352 3.49608C10.2858 4.40677 9.53601 5.38554 8.91694 6.48309C8.79476 6.69969 8.67554 6.92364 8.56086 7.15428C8.50918 7.25821 8.40377 7.32485 8.28787 7.32485L4.78026 7.32485ZM12.8648 3.4961C12.8066 3.43367 12.7806 3.35919 12.7806 3.28716C12.7806 3.12736 12.9086 2.97961 13.0964 3.00233C15.7378 3.32186 18.0287 4.7812 19.4647 6.8749C19.4998 6.92612 19.5157 6.98168 19.5157 7.03571C19.5157 7.18622 19.3925 7.32487 19.2197 7.32487L15.7121 7.32487C15.5962 7.32487 15.4908 7.25822 15.4391 7.15429C15.3245 6.92366 15.2052 6.69971 15.0831 6.4831C14.464 5.38556 13.7142 4.40678 12.8648 3.4961ZM10.0551 7.12734C10.6106 6.14256 11.2418 5.30821 11.7837 4.69804C11.8993 4.56796 12.1007 4.56796 12.2163 4.69804C12.7582 5.30821 13.3894 6.14256 13.9449 7.12734C13.9568 7.14839 13.9622 7.17058 13.9622 7.19218C13.9622 7.26156 13.9063 7.32485 13.8288 7.32485L10.1712 7.32485C10.0937 7.32485 10.0378 7.26156 10.0378 7.19218C10.0378 7.17058 10.0432 7.14839 10.0551 7.12734ZM3.52112 8.82515C3.56435 8.70946 3.6757 8.63444 3.79902 8.63444L7.5057 8.63444C7.6809 8.63444 7.81187 8.78058 7.81187 8.94552C7.81187 8.97653 7.80724 9.0082 7.79741 9.0397C7.59488 9.68823 7.44526 10.3678 7.37278 11.0682C7.35648 11.2257 7.22574 11.348 7.06767 11.348L3.29686 11.348C3.13242 11.348 3.00001 11.2167 3.00001 11.0562C3.00001 11.0458 3.00056 11.0353 3.00169 11.0247C3.08369 10.259 3.26086 9.52175 3.52112 8.82515ZM8.98801 11.348C8.82374 11.348 8.69177 11.217 8.69177 11.0575C8.69177 11.0454 8.69253 11.0331 8.6941 11.0207C8.78961 10.2638 8.9887 9.52596 9.25458 8.82489C9.29837 8.70944 9.40961 8.63444 9.5329 8.63444L14.4671 8.63444C14.5904 8.63444 14.7016 8.70944 14.7454 8.82489C15.0113 9.52596 15.2104 10.2638 15.3059 11.0207C15.3075 11.0331 15.3082 11.0454 15.3082 11.0575C15.3082 11.217 15.1763 11.348 15.012 11.348L8.98801 11.348ZM20.201 8.63445C20.3243 8.63445 20.4357 8.70947 20.4789 8.82517C20.7391 9.52176 20.9163 10.259 20.9983 11.0248C20.9994 11.0354 21 11.0458 21 11.0562C21 11.2167 20.8676 11.348 20.7031 11.348L16.9323 11.348C16.7743 11.348 16.6435 11.2257 16.6272 11.0682C16.5547 10.3678 16.4051 9.68824 16.2026 9.03971C16.1928 9.00822 16.1881 8.97654 16.1881 8.94553C16.1881 8.78059 16.3191 8.63445 16.4943 8.63445L20.201 8.63445ZM3.29686 12.6576L7.06767 12.6576C7.22574 12.6576 7.35648 12.7799 7.37278 12.9374C7.44558 13.641 7.59623 14.3236 7.80016 14.9748C7.81005 15.0063 7.8147 15.0381 7.8147 15.0692C7.8147 15.2341 7.68375 15.3802 7.50853 15.3802L3.80239 15.3802C3.67919 15.3802 3.56792 15.3054 3.52461 15.1898C3.26244 14.4905 3.08405 13.7501 3.00169 12.9809C3.00055 12.9703 3 12.9598 3 12.9494C3 12.789 3.13242 12.6576 3.29686 12.6576ZM9.53633 15.3802C9.41314 15.3802 9.30196 15.3054 9.25811 15.19C8.99046 14.4862 8.79003 13.7451 8.69409 12.9849C8.69253 12.9725 8.69177 12.9602 8.69177 12.9481C8.69177 12.7886 8.82373 12.6576 8.98801 12.6576L15.012 12.6576C15.1763 12.6576 15.3082 12.7886 15.3082 12.9481C15.3082 12.9602 15.3075 12.9725 15.3059 12.9849C15.21 13.7451 15.0095 14.4862 14.7419 15.19C14.698 15.3054 14.5869 15.3802 14.4637 15.3802L9.53633 15.3802ZM20.7031 12.6576C20.8676 12.6576 21 12.789 21 12.9494C21 12.9598 20.9994 12.9703 20.9983 12.9809C20.916 13.7501 20.7376 14.4905 20.4754 15.1898C20.4321 15.3054 20.3208 15.3803 20.1976 15.3803L16.4915 15.3803C16.3163 15.3803 16.1853 15.2341 16.1853 15.0692C16.1853 15.0381 16.1899 15.0063 16.1998 14.9748C16.4038 14.3236 16.5544 13.641 16.6272 12.9374C16.6435 12.7799 16.7743 12.6576 16.9323 12.6576L20.7031 12.6576ZM8.56525 16.8602C8.67859 17.0877 8.79632 17.3087 8.91694 17.5226C9.51518 18.5832 10.2362 19.6032 11.0864 20.4854C11.1484 20.5498 11.1761 20.6284 11.1761 20.7045C11.1761 20.8686 11.0472 21.0216 10.856 20.9975C8.23864 20.6667 5.96943 19.2162 4.5417 17.1401C4.50643 17.0888 4.49051 17.0331 4.49051 16.979C4.49051 16.8285 4.6136 16.6898 4.78643 16.6898L8.29236 16.6898C8.40819 16.6898 8.51354 16.7564 8.56525 16.8602ZM10.0551 16.8783C10.0438 16.8582 10.0386 16.8371 10.0386 16.8164C10.0386 16.7502 10.0919 16.6898 10.1659 16.6898L13.8341 16.6898C13.9081 16.6898 13.9614 16.7502 13.9614 16.8164C13.9614 16.837 13.9563 16.8582 13.9449 16.8783C13.3894 17.8631 12.7582 18.6975 12.2162 19.3076C12.1007 19.4377 11.8993 19.4377 11.7837 19.3076C11.2418 18.6975 10.6106 17.8631 10.0551 16.8783ZM19.2136 16.6898C19.3864 16.6898 19.5095 16.8285 19.5095 16.979C19.5095 17.0331 19.4936 17.0888 19.4583 17.1401C18.0306 19.2162 15.7614 20.6668 13.144 20.9975C12.9528 21.0216 12.8239 20.8687 12.8239 20.7045C12.8239 20.6284 12.8516 20.5498 12.9136 20.4855C13.7638 19.6033 14.4848 18.5832 15.0831 17.5226C15.2037 17.3088 15.3214 17.0878 15.4347 16.8602C15.4865 16.7564 15.5918 16.6898 15.7076 16.6898L19.2136 16.6898Z"/></svg>

<svg xmlns="http://www.w3.org/2000/svg" fill="none" viewBox="0 0 24 24" focusable="false"><path fill="#74767B" fill-rule="evenodd" d="M4.78 7.32c-.18 0-.3-.14-.3-.29 0-.05.02-.11.05-.16A9.07 9.07 0 0 1 10.9 3c.19-.03.31.12.31.28 0 .07-.02.15-.08.21-.85.91-1.6 1.89-2.22 2.99-.12.21-.24.44-.35.67-.06.1-.16.17-.28.17zm8.08-3.83a.3.3 0 0 1-.08-.21c0-.16.12-.31.31-.28a9.07 9.07 0 0 1 6.37 3.87c.04.05.05.11.05.16 0 .15-.12.29-.3.29h-3.5c-.12 0-.22-.07-.28-.17-.11-.23-.23-.46-.35-.67-.62-1.1-1.37-2.08-2.22-2.99m-2.81 3.63c.56-.98 1.19-1.82 1.73-2.43.11-.13.32-.13.43 0 .54.61 1.17 1.45 1.73 2.43.01.02.02.05.02.07 0 .07-.06.13-.14.13h-3.65c-.08 0-.14-.06-.14-.13 0-.02.01-.05.02-.07m-6.53 1.7c.04-.12.15-.19.27-.19H7.5c.18 0 .31.15.31.31 0 .03-.01.06-.02.09-.2.65-.35 1.33-.42 2.03-.02.16-.15.28-.31.28H3.29a.29.29 0 0 1-.29-.29v-.03c.08-.77.26-1.5.52-2.2m5.46 2.52a.29.29 0 0 1-.29-.29v-.03c.09-.76.29-1.5.56-2.2.04-.12.15-.19.28-.19h4.93c.13 0 .24.07.28.19.27.7.47 1.44.56 2.2v.03c0 .16-.13.29-.29.29zM20.2 8.63c.12 0 .23.07.27.19.26.7.44 1.43.52 2.2 0 .01.01.02.01.03 0 .16-.14.29-.3.29h-3.77c-.16 0-.29-.12-.31-.28-.07-.7-.22-1.38-.42-2.03-.01-.03-.02-.06-.02-.09 0-.16.13-.31.31-.31zM3.29 12.65h3.77c.16 0 .29.12.31.28.07.71.22 1.39.43 2.04.01.03.01.06.01.09 0 .17-.13.32-.31.32H3.8c-.13 0-.24-.08-.28-.2-.26-.69-.44-1.43-.52-2.2v-.04c0-.16.13-.29.29-.29m6.24 2.73c-.12 0-.23-.08-.28-.19-.26-.71-.46-1.45-.56-2.21v-.04c0-.16.13-.29.29-.29h6.03c.16 0 .29.13.29.29v.04c-.09.76-.3 1.5-.56 2.21-.05.11-.16.19-.28.19zm11.17-2.73c.16 0 .3.13.3.29 0 .01-.01.03-.01.04-.08.77-.26 1.51-.52 2.2-.04.12-.15.2-.28.2h-3.7c-.18 0-.31-.15-.31-.32 0-.03 0-.06.01-.09.21-.65.36-1.33.43-2.04.02-.16.15-.28.31-.28zM8.56 16.86c.11.22.23.44.35.66.6 1.06 1.32 2.08 2.17 2.96.06.06.09.14.09.22 0 .16-.13.32-.32.29a9.03 9.03 0 0 1-6.31-3.85.28.28 0 0 1-.05-.17c0-.15.12-.29.29-.29h3.51c.11 0 .22.07.27.18m1.49.01a.14.14 0 0 1-.02-.06c0-.06.06-.13.13-.13h3.67c.07 0 .13.07.13.13 0 .02-.01.04-.02.06-.56.99-1.19 1.82-1.73 2.43-.11.13-.32.13-.43 0-.54-.61-1.17-1.44-1.73-2.43m9.16-.19c.17 0 .29.14.29.29 0 .06-.01.11-.05.17a9.03 9.03 0 0 1-6.31 3.85c-.19.03-.32-.13-.32-.29 0-.08.03-.16.09-.22.85-.88 1.57-1.9 2.17-2.96.12-.22.24-.44.35-.66.05-.11.16-.18.27-.18z"/></svg>
